icons/volume-down.svg

<?xml version="1.0" standalone="no"?><!-- Generator: Gravit.io --><svg xmlns="http://www.w3.org/2000/svg" xmlns:xlink="http://www.w3.org/1999/xlink" width="96" height="96"><path d=" M 65.99584186727319 12.3 L 65.99584186727319 83.7 C 66.29584186727317 86.8 64.19584186727317 89.6 61.19584186727318 90.2 C 60.39584186727318 90.3 59.59584186727318 90.3 58.89584186727318 90 L 56.795841867273175 89.1 L 30.795841867273175 69.6 C 29.395841867273177 68.6 27.695841867273177 68 25.995841867273178 68 L 17.995841867273178 68 C 15.895841867273177 68 13.795841867273179 67.2 12.295841867273179 65.7 C 10.795841867273179 64.2 9.995841867273178 62.1 9.995841867273178 60 L 9.995841867273178 36 C 9.995841867273178 33.9 10.795841867273179 31.8 12.295841867273179 30.3 C 13.795841867273179 28.8 15.895841867273177 28 17.995841867273178 28 L 25.995841867273178 28 C 27.695841867273177 28 29.395841867273177 27.4 30.795841867273175 26.4 L 56.795841867273175 6.9 L 58.89584186727318 6 C 59.59584186727318 5.7 60.39584186727318 5.7 61.19584186727318 5.8 C 64.19584186727317 6.4 66.29584186727317 9.2 65.99584186727319 12.3 Z  M 57.99584186727318 16 L 57.99584186727318 80 L 35.59584186727318 63.2 C 32.795841867273175 61.1 29.495841867273178 60 25.995841867273178 60 L 17.995841867273178 60 L 17.995841867273178 36 L 25.995841867273178 36 C 29.495841867273178 36 32.795841867273175 34.9 35.59584186727318 32.8 L 57.99584186727318 16 Z  M 73.89584186727318 28.2 C 72.79584186727317 28.2 71.69584186727317 27.7 70.89584186727318 26.9 C 70.19584186727317 26.1 69.69584186727317 25 69.79584186727317 23.9 C 69.79584186727317 22.8 70.29584186727317 21.7 71.09584186727318 20.9 C 71.89584186727318 20.1 72.99584186727319 19.7 74.09584186727318 19.8 C 76.79584186727317 20.2 78.99584186727319 21.6 80.39584186727319 23.6 C 81.79584186727317 25.5 82.79584186727317 27.6 83.49584186727319 29.9 C 85.29584186727317 35.7 86.09584186727318 41.9 85.99584186727319 48 C 86.09584186727318 54.1 85.29584186727317 60.3 83.49584186727319 66.1 C 82.79584186727317 68.4 81.79584186727317 70.5 80.39584186727319 72.4 C 78.99584186727319 74.4 76.79584186727317 75.8 74.39584186727319 76 C 73.29584186727317 76.1 72.29584186727317 75.8 71.49584186727319 75.1 C 70.59584186727318 74.4 70.09584186727318 73.4 69.99584186727319 72.4 C 69.89584186727318 71.3 70.29584186727317 70.3 70.89584186727318 69.4 C 71.59584186727318 68.6 72.59584186727318 68.1 73.59584186727318 68 C 74.79584186727317 66.6 75.39584186727319 65.2 75.79584186727317 63.8 C 77.39584186727319 58.7 78.09584186727318 53.4 77.99584186727319 48 C 78.09584186727318 42.6 77.39584186727319 37.3 75.79584186727317 32.2 C 75.39584186727319 30.8 74.79584186727317 29.4 73.89584186727318 28.2 Z " fill-rule="evenodd" fill="#454545" stroke="none"/><mask id="_mask_580cqOnOnI4uEz1QdX513HlvRo9DV4uX"><path d=" M 65.99584186727319 12.3 L 65.99584186727319 83.7 C 66.29584186727317 86.8 64.19584186727317 89.6 61.19584186727318 90.2 C 60.39584186727318 90.3 59.59584186727318 90.3 58.89584186727318 90 L 56.795841867273175 89.1 L 30.795841867273175 69.6 C 29.395841867273177 68.6 27.695841867273177 68 25.995841867273178 68 L 17.995841867273178 68 C 15.895841867273177 68 13.795841867273179 67.2 12.295841867273179 65.7 C 10.795841867273179 64.2 9.995841867273178 62.1 9.995841867273178 60 L 9.995841867273178 36 C 9.995841867273178 33.9 10.795841867273179 31.8 12.295841867273179 30.3 C 13.795841867273179 28.8 15.895841867273177 28 17.995841867273178 28 L 25.995841867273178 28 C 27.695841867273177 28 29.395841867273177 27.4 30.795841867273175 26.4 L 56.795841867273175 6.9 L 58.89584186727318 6 C 59.59584186727318 5.7 60.39584186727318 5.7 61.19584186727318 5.8 C 64.19584186727317 6.4 66.29584186727317 9.2 65.99584186727319 12.3 Z  M 57.99584186727318 16 L 57.99584186727318 80 L 35.59584186727318 63.2 C 32.795841867273175 61.1 29.495841867273178 60 25.995841867273178 60 L 17.995841867273178 60 L 17.995841867273178 36 L 25.995841867273178 36 C 29.495841867273178 36 32.795841867273175 34.9 35.59584186727318 32.8 L 57.99584186727318 16 Z  M 73.89584186727318 28.2 C 72.79584186727317 28.2 71.69584186727317 27.7 70.89584186727318 26.9 C 70.19584186727317 26.1 69.69584186727317 25 69.79584186727317 23.9 C 69.79584186727317 22.8 70.29584186727317 21.7 71.09584186727318 20.9 C 71.89584186727318 20.1 72.99584186727319 19.7 74.09584186727318 19.8 C 76.79584186727317 20.2 78.99584186727319 21.6 80.39584186727319 23.6 C 81.79584186727317 25.5 82.79584186727317 27.6 83.49584186727319 29.9 C 85.29584186727317 35.7 86.09584186727318 41.9 85.99584186727319 48 C 86.09584186727318 54.1 85.29584186727317 60.3 83.49584186727319 66.1 C 82.79584186727317 68.4 81.79584186727317 70.5 80.39584186727319 72.4 C 78.99584186727319 74.4 76.79584186727317 75.8 74.39584186727319 76 C 73.29584186727317 76.1 72.29584186727317 75.8 71.49584186727319 75.1 C 70.59584186727318 74.4 70.09584186727318 73.4 69.99584186727319 72.4 C 69.89584186727318 71.3 70.29584186727317 70.3 70.89584186727318 69.4 C 71.59584186727318 68.6 72.59584186727318 68.1 73.59584186727318 68 C 74.79584186727317 66.6 75.39584186727319 65.2 75.79584186727317 63.8 C 77.39584186727319 58.7 78.09584186727318 53.4 77.99584186727319 48 C 78.09584186727318 42.6 77.39584186727319 37.3 75.79584186727317 32.2 C 75.39584186727319 30.8 74.79584186727317 29.4 73.89584186727318 28.2 Z " fill-rule="evenodd" fill="white" stroke="none"/></mask><path d=" M 65.99584186727319 12.3 L 65.99584186727319 83.7 C 66.29584186727317 86.8 64.19584186727317 89.6 61.19584186727318 90.2 C 60.39584186727318 90.3 59.59584186727318 90.3 58.89584186727318 90 L 56.795841867273175 89.1 L 30.795841867273175 69.6 C 29.395841867273177 68.6 27.695841867273177 68 25.995841867273178 68 L 17.995841867273178 68 C 15.895841867273177 68 13.795841867273179 67.2 12.295841867273179 65.7 C 10.795841867273179 64.2 9.995841867273178 62.1 9.995841867273178 60 L 9.995841867273178 36 C 9.995841867273178 33.9 10.795841867273179 31.8 12.295841867273179 30.3 C 13.795841867273179 28.8 15.895841867273177 28 17.995841867273178 28 L 25.995841867273178 28 C 27.695841867273177 28 29.395841867273177 27.4 30.795841867273175 26.4 L 56.795841867273175 6.9 L 58.89584186727318 6 C 59.59584186727318 5.7 60.39584186727318 5.7 61.19584186727318 5.8 C 64.19584186727317 6.4 66.29584186727317 9.2 65.99584186727319 12.3 Z  M 57.99584186727318 16 L 57.99584186727318 80 L 35.59584186727318 63.2 C 32.795841867273175 61.1 29.495841867273178 60 25.995841867273178 60 L 17.995841867273178 60 L 17.995841867273178 36 L 25.995841867273178 36 C 29.495841867273178 36 32.795841867273175 34.9 35.59584186727318 32.8 L 57.99584186727318 16 Z  M 73.89584186727318 28.2 C 72.79584186727317 28.2 71.69584186727317 27.7 70.89584186727318 26.9 C 70.19584186727317 26.1 69.69584186727317 25 69.79584186727317 23.9 C 69.79584186727317 22.8 70.29584186727317 21.7 71.09584186727318 20.9 C 71.89584186727318 20.1 72.99584186727319 19.7 74.09584186727318 19.8 C 76.79584186727317 20.2 78.99584186727319 21.6 80.39584186727319 23.6 C 81.79584186727317 25.5 82.79584186727317 27.6 83.49584186727319 29.9 C 85.29584186727317 35.7 86.09584186727318 41.9 85.99584186727319 48 C 86.09584186727318 54.1 85.29584186727317 60.3 83.49584186727319 66.1 C 82.79584186727317 68.4 81.79584186727317 70.5 80.39584186727319 72.4 C 78.99584186727319 74.4 76.79584186727317 75.8 74.39584186727319 76 C 73.29584186727317 76.1 72.29584186727317 75.8 71.49584186727319 75.1 C 70.59584186727318 74.4 70.09584186727318 73.4 69.99584186727319 72.4 C 69.89584186727318 71.3 70.29584186727317 70.3 70.89584186727318 69.4 C 71.59584186727318 68.6 72.59584186727318 68.1 73.59584186727318 68 C 74.79584186727317 66.6 75.39584186727319 65.2 75.79584186727317 63.8 C 77.39584186727319 58.7 78.09584186727318 53.4 77.99584186727319 48 C 78.09584186727318 42.6 77.39584186727319 37.3 75.79584186727317 32.2 C 75.39584186727319 30.8 74.79584186727317 29.4 73.89584186727318 28.2 Z " fill-rule="evenodd" fill="none" stroke="none" stroke-width="16" mask="url(#_mask_580cqOnOnI4uEz1QdX513HlvRo9DV4uX)"/></svg>

<svg xmlns="http://www.w3.org/2000/svg" width="96" height="96"><path d="M65.996 12.3v71.4c.3 3.1-1.8 5.9-4.8 6.5-.8.1-1.6.1-2.3-.2l-2.1-.9-26-19.5c-1.4-1-3.1-1.6-4.8-1.6h-8c-2.1 0-4.2-.8-5.7-2.3-1.5-1.5-2.3-3.6-2.3-5.7V36c0-2.1.8-4.2 2.3-5.7 1.5-1.5 3.6-2.3 5.7-2.3h8c1.7 0 3.4-.6 4.8-1.6l26-19.5 2.1-.9c.7-.3 1.5-.3 2.3-.2 3 .6 5.1 3.4 4.8 6.5zm-8 3.7v64l-22.4-16.8c-2.8-2.1-6.1-3.2-9.6-3.2h-8V36h8c3.5 0 6.8-1.1 9.6-3.2l22.4-16.8zm15.9 12.2c-1.1 0-2.2-.5-3-1.3-.7-.8-1.2-1.9-1.1-3 0-1.1.5-2.2 1.3-3 .8-.8 1.9-1.2 3-1.1 2.7.4 4.9 1.8 6.3 3.8 1.4 1.9 2.4 4 3.1 6.3 1.8 5.8 2.6 12 2.5 18.1.1 6.1-.7 12.3-2.5 18.1-.7 2.3-1.7 4.4-3.1 6.3-1.4 2-3.6 3.4-6 3.6-1.1.1-2.1-.2-2.9-.9-.9-.7-1.4-1.7-1.5-2.7-.1-1.1.3-2.1.9-3 .7-.8 1.7-1.3 2.7-1.4 1.2-1.4 1.8-2.8 2.2-4.2 1.6-5.1 2.3-10.4 2.2-15.8.1-5.4-.6-10.7-2.2-15.8-.4-1.4-1-2.8-1.9-4z" fill-rule="evenodd" fill="#454545"/></svg>
